X:1
T:St. Saviour, 10.10.10.10
T:Joseph Barnby (1838-1896)
T:St. Saviour, 10.10.10.10
T:Public Domain
C:Joseph Barnby (1838-1896)
Z:Public Domain
%%score ( 1 2 ) ( 3 4 )
L:1/8
M:4/4
K:D
V:1 treble 
V:2 treble 
V:3 bass 
V:4 bass 
V:1
 [DF]4 [DF]2 [DG]2 | [DA]4 [DA]4 | [DB]2 [Dd]2 [Gd]2 [Ec]2 | [Fd]8 | [Fd]4 [Ec]2 [DB]2 | %5
 [CA]4 [DA]4 | [DB]2 [CA]2 [B,^G]2 [B,G]2 | [A,F]8 | [=CA]4 [CG]2 [CF]2 | [B,G]4 [^DG]4 | %10
 [EB]2 [^DB]2 [Ee]2 [G=d]2 | (G4 F2 E2) | [Dd]4 [Ec]2 [EF]2 | [^DF]2 [DB]2 [EB]2 ([FA][EG]) | %14
 [DF]4 [CE]4 | D8 |] %16
V:2
 x8 | x8 | x8 | x8 | x8 | x8 | x8 | x8 | x8 | x8 | x8 | c8 | x8 | x8 | x8 | D8 |] %16
V:3
 [D,A,]4 [D,A,]2 [E,A,]2 | [F,A,]4 [D,F,]4 | G,2 [F,A,]2 [E,B,]2 A,2 | [D,A,]8 | %4
 [D,A,]4 [E,^G,]2 [E,G,]2 | [F,A,]4 [D,F,]4 | [B,,F,]2 [B,,F,]2 [C,F,]2 [C,^E,]2 | F,8 | %8
 [D,F,]4 [D,G,]2 [D,A,]2 | G,4 [A,B,]4 | [G,B,]2 [F,A,]2 [G,B,]2 [E,B,]2 | (A,6 G,2) | %12
 [F,A,]4 [F,^A,]2 [F,A,]2 | B,2 [B,,A,]2 [E,G,]2 [G,,B,]2 | [A,,A,]4 [A,,G,]4 | [D,F,]8 |] %16
V:4
 x8 | x8 | G,2 x2 A,2 x2 | x8 | x8 | x8 | x8 | F,8 | x8 | G,4 x4 | x8 | A,8 | x8 | B,2 x6 | x8 | %15
 x8 |] %16

